X: 111356
T: Killaval (Fancy)
S: "Ceol Rince na hEireann" 1/147
Z: B.Black
L: 1/8
M: 4/4
R: reel
K: D
D2 AD BDAD|D2 AD BDAD|E2 BE dEBE|E2 BE dbAF|
D2 AD BDAD|D2 AD BDAD|GFEF GABc|1 defd BdAF :|2\
defd BdAB||
d2 fd Adfd|g2 fg edBc|d2 fd Adfd|g2 fg e2 e2|
d2 fd Adfd|g2 fg edBc|dcBA Bcde|1 (3fga ed BdAB :|2\
(3fga ed BdAF||
